src/assets/images/components/section/home/SectionHomeMain/illustration-attachment-blue.svg

<svg fill="none" height="133" viewBox="0 0 133 133" width="133" xmlns="http://www.w3.org/2000/svg" xmlns:xlink="http://www.w3.org/1999/xlink"><filter id="a" color-interpolation-filters="sRGB" filterUnits="userSpaceOnUse" height="28.6707" width="28.6701" x="9.55656" y="96.3653"><feFlood flood-opacity="0" result="BackgroundImageFix"/><feColorMatrix in="SourceAlpha" result="hardAlpha" type="matrix" values="0 0 0 0 0 0 0 0 0 0 0 0 0 0 0 0 0 0 127 0"/><feOffset dy="1.59281"/><feGaussianBlur stdDeviation="1.59281"/><feComposite in2="hardAlpha" operator="out"/><feColorMatrix type="matrix" values="0 0 0 0 0 0 0 0 0 0 0 0 0 0 0 0 0 0 0.17 0"/><feBlend in2="BackgroundImageFix" mode="normal" result="effect1_dropShadow_946_2495"/><feBlend in="SourceGraphic" in2="effect1_dropShadow_946_2495" mode="normal" result="shape"/><feColorMatrix in="SourceAlpha" result="hardAlpha" type="matrix" values="0 0 0 0 0 0 0 0 0 0 0 0 0 0 0 0 0 0 127 0"/><feOffset dy="-.796407"/><feGaussianBlur stdDeviation=".398204"/><feComposite in2="hardAlpha" k2="-1" k3="1" operator="arithmetic"/><feColorMatrix type="matrix" values="0 0 0 0 0 0 0 0 0 0 0 0 0 0 0 0 0 0 0.25 0"/><feBlend in2="shape" mode="normal" result="effect2_innerShadow_946_2495"/></filter><linearGradient id="b" gradientUnits="userSpaceOnUse" x1="68" x2="68.5" y1="-4" y2="237"><stop offset="0" stop-color="#518eea"/><stop offset=".642282" stop-color="#644eb4"/></linearGradient><linearGradient id="c" gradientUnits="userSpaceOnUse" x1="23.8931" x2="23.8931" y1="89.994" y2="128.222"><stop offset="0" stop-color="#fff"/><stop offset="1" stop-color="#d9e4fe"/></linearGradient><clipPath id="d"><rect height="133" rx="16" width="133"/></clipPath><g clip-path="url(#d)"><rect fill="#518eea" height="133" rx="16" width="133"/><path d="m389.967-468.98s4.039 21.436-9.838 45.472c-34.668 60.047-92.978 41.237-111.045 23.051-41.846-42.118 1.856-98.379 47.107-44.472 26.61 31.701 28.263 82.868 12.64 109.928-10.541 18.258-26.513 23.384-38.857 27.063-71.577 21.348-25.859 85.03-2.505 44.578 13.694-23.718 18.261-71.122-12.64-76.942-47.039-8.855-103.719 41.542-103.719 41.542 35.91-.362 57.859 41.859 23.029 64.888-10.901 7.209-19.241 9.029-38.29 42.022-36.164 62.638 35.375 93.8935 66.382 40.187 36.732-63.621-68.681-116.682-102.704-57.754-20.522 35.546 6.087 73.563 39.226 83.881 21.461 6.918 31.211 31.0744 18.678 52.7833-29.12 50.4363-76.184-23.6136-94.6277-44.0853-14.7871 15.582-24.5975 64.9469-51.6565 60.5009 21.9264 9.4106 101.7622 60.68295 76.4672 104.4949-7.9996 13.8564-21.7344 18.8696-35.1587 22.33-79.37644 23.2301-28.0898 85.9222-5.3473 46.5302 47.638-82.5113-56.5841-135.4112-91.8789-74.2788-11.6829 20.2353-28.5646 66.5348 52.1474 144.3798l39.1749 37.983" stroke="url(#b)" stroke-linecap="round" stroke-linejoin="round" stroke-width="24"/><rect fill="url(#c)" fill-opacity=".36" height="38.2275" rx="12" width="38.2275" x="4.7793" y="89.994"/><g filter="url(#a)"><path d="m30.3262 109.419-6.885 6.885c-1.754 1.763-4.1122 1.598-5.6193.072-1.5181-1.507-1.682-3.848.0737-5.612l9.4231-9.415c1.0313-1.03 2.5631-1.213 3.568-.214 1.0004 1.016.8158 2.537-.2078 3.568l-9.242 9.247c-.4136.427-.9148.303-1.2002.019-.282-.292-.3993-.777.0127-1.206l6.4518-6.435c.3237-.333.3407-.811.0263-1.124-.3126-.303-.7922-.288-1.1158.036l-6.4722 6.472c-.999.999-.9566 2.536-.0713 3.419.9634.964 2.4186.943 3.4252-.063l9.286-9.286c1.8024-1.803 1.7378-4.178.1544-5.761-1.5461-1.5444-3.9599-1.648-5.7623.153l-9.4748 9.487c-2.3606 2.361-2.1934 5.753-.05 7.898 2.1468 2.136 5.5387 2.304 7.8994-.048l6.9349-6.935c.3126-.308.3093-.882-.0127-1.176-.3077-.329-.8185-.294-1.1421.019z" fill="#fff"/></g></g></svg>

<svg width="133" height="133" viewBox="0 0 133 133" fill="none" xmlns="http://www.w3.org/2000/svg">
<g clip-path="url(#clip0_946_2495)">
<rect width="133" height="133" rx="16" fill="#518EEA"/>
<path d="M389.967 -468.98C389.967 -468.98 394.006 -447.544 380.129 -423.508C345.461 -363.461 287.151 -382.271 269.084 -400.457C227.238 -442.575 270.94 -498.836 316.191 -444.929C342.801 -413.228 344.454 -362.061 328.831 -335.001C318.29 -316.743 302.318 -311.617 289.974 -307.938C218.397 -286.59 264.115 -222.908 287.469 -263.36C301.163 -287.078 305.73 -334.482 274.829 -340.302C227.79 -349.157 171.11 -298.76 171.11 -298.76C207.02 -299.122 228.969 -256.901 194.139 -233.872C183.238 -226.663 174.898 -224.843 155.849 -191.85C119.685 -129.212 191.224 -97.9565 222.231 -151.663C258.963 -215.284 153.55 -268.345 119.527 -209.417C99.005 -173.871 125.614 -135.854 158.753 -125.536C180.214 -118.618 189.964 -94.4616 177.431 -72.7527C148.311 -22.3164 101.247 -96.3663 82.8033 -116.838C68.0162 -101.256 58.2058 -51.8911 31.1468 -56.3371C53.0732 -46.9265 132.909 4.34585 107.614 48.1578C99.6144 62.0142 85.8796 67.0274 72.4553 70.4878C-6.92114 93.7179 44.3655 156.41 67.108 117.018C114.746 34.5067 10.5239 -18.3932 -24.7709 42.7392C-36.4538 62.9745 -53.3355 109.274 27.3765 187.119L66.5514 225.102" stroke="url(#paint0_linear_946_2495)" stroke-width="24" stroke-linecap="round" stroke-linejoin="round"/>
<rect x="4.7793" y="89.994" width="38.2275" height="38.2275" rx="12" fill="url(#paint1_linear_946_2495)" fill-opacity="0.36"/>
<g filter="url(#filter0_di_946_2495)">
<path d="M30.3262 109.419L23.4412 116.304C21.6872 118.067 19.329 117.902 17.8219 116.376C16.3038 114.869 16.1399 112.528 17.8956 110.764L27.3187 101.349C28.35 100.319 29.8818 100.136 30.8867 101.135C31.8871 102.151 31.7025 103.672 30.6789 104.703L21.4369 113.95C21.0233 114.377 20.5221 114.253 20.2367 113.969C19.9547 113.677 19.8374 113.192 20.2494 112.763L26.7012 106.328C27.0249 105.995 27.0419 105.517 26.7275 105.204C26.4149 104.901 25.9353 104.916 25.6117 105.24L19.1395 111.712C18.1405 112.711 18.1829 114.248 19.0682 115.131C20.0316 116.095 21.4868 116.074 22.4934 115.068L31.7794 105.782C33.5818 103.979 33.5172 101.604 31.9338 100.021C30.3877 98.4766 27.9739 98.373 26.1715 100.174L16.6967 109.661C14.3361 112.022 14.5033 115.414 16.6467 117.559C18.7935 119.695 22.1854 119.863 24.5461 117.511L31.481 110.576C31.7936 110.268 31.7903 109.694 31.4683 109.4C31.1606 109.071 30.6498 109.106 30.3262 109.419Z" fill="white"/>
</g>
</g>
<defs>
<filter id="filter0_di_946_2495" x="9.55656" y="96.3653" width="28.6701" height="28.6707" filterUnits="userSpaceOnUse" color-interpolation-filters="sRGB">
<feFlood flood-opacity="0" result="BackgroundImageFix"/>
<feColorMatrix in="SourceAlpha" type="matrix" values="0 0 0 0 0 0 0 0 0 0 0 0 0 0 0 0 0 0 127 0" result="hardAlpha"/>
<feOffset dy="1.59281"/>
<feGaussianBlur stdDeviation="1.59281"/>
<feComposite in2="hardAlpha" operator="out"/>
<feColorMatrix type="matrix" values="0 0 0 0 0 0 0 0 0 0 0 0 0 0 0 0 0 0 0.17 0"/>
<feBlend mode="normal" in2="BackgroundImageFix" result="effect1_dropShadow_946_2495"/>
<feBlend mode="normal" in="SourceGraphic" in2="effect1_dropShadow_946_2495" result="shape"/>
<feColorMatrix in="SourceAlpha" type="matrix" values="0 0 0 0 0 0 0 0 0 0 0 0 0 0 0 0 0 0 127 0" result="hardAlpha"/>
<feOffset dy="-0.796407"/>
<feGaussianBlur stdDeviation="0.398204"/>
<feComposite in2="hardAlpha" operator="arithmetic" k2="-1" k3="1"/>
<feColorMatrix type="matrix" values="0 0 0 0 0 0 0 0 0 0 0 0 0 0 0 0 0 0 0.25 0"/>
<feBlend mode="normal" in2="shape" result="effect2_innerShadow_946_2495"/>
</filter>
<linearGradient id="paint0_linear_946_2495" x1="68" y1="-4" x2="68.5" y2="237" gradientUnits="userSpaceOnUse">
<stop stop-color="#518EEA"/>
<stop offset="0.642282" stop-color="#644EB4"/>
</linearGradient>
<linearGradient id="paint1_linear_946_2495" x1="23.8931" y1="89.994" x2="23.8931" y2="128.222" gradientUnits="userSpaceOnUse">
<stop stop-color="white"/>
<stop offset="1" stop-color="#D9E4FE"/>
</linearGradient>
<clipPath id="clip0_946_2495">
<rect width="133" height="133" rx="16" fill="white"/>
</clipPath>
</defs>
</svg>
